images/border-mobile-3.svg

<svg width="375" height="100" viewBox="0 0 375 100" fill="none" xmlns="http://www.w3.org/2000/svg">
<path d="M1179.5 17.8751L1139.55 0.569995H806.869L731.174 33.3561H127.618L51.9234 0.569995H-157V52.4624H815.607L922.99 98.974H1424.32L1531.71 52.4624H1763V17.8751H1179.5Z" fill="url(#paint0_radial_2129_1040)"/>
<path d="M1139.55 0.569995H806.869L749.177 25.5358H944.888L1052.27 72.0474H1369.63L1477.01 25.5358H1763V17.8751H1179.5L1139.55 0.569995Z" fill="url(#paint1_radial_2129_1040)"/>
<path d="M1425.27 100H922.043L921.306 99.7036L814.659 53.4884H-157V51.4364H816.607L923.99 97.948H1423.32L1530.7 51.4364H1763V53.4884H1532.65L1425.27 100Z" fill="url(#paint2_radial_2129_1040)"/>
<path d="M731.701 33.9261H127.039L51.3443 1.13999H-157V0H52.4498L128.144 32.7861H730.595L806.29 0H1140.07L1180.08 17.3051H1763V18.4451H1178.97L1139.02 1.13999H807.395L731.701 33.9261Z" fill="url(#paint3_radial_2129_1040)"/>
<defs>
<radialGradient id="paint0_radial_2129_1040" cx="0" cy="0" r="1" gradientUnits="userSpaceOnUse" gradientTransform="translate(928.501 123.794) scale(1109.71 488.454)">
<stop stop-color="#7B8499"/>
<stop offset="1" stop-color="#151E28"/>
</radialGradient>
<radialGradient id="paint1_radial_2129_1040" cx="0" cy="0" r="1" gradientUnits="userSpaceOnUse" gradientTransform="translate(436.571 215.343) scale(1436.02 459.493)">
<stop stop-color="#7B8499"/>
<stop offset="1" stop-color="#151E28"/>
</radialGradient>
<radialGradient id="paint2_radial_2129_1040" cx="0" cy="0" r="1" gradientUnits="userSpaceOnUse" gradientTransform="translate(802.99 113.635) scale(866.149 772.515)">
<stop stop-color="#B8BFC9"/>
<stop offset="1" stop-color="#151E28"/>
</radialGradient>
<radialGradient id="paint3_radial_2129_1040" cx="0" cy="0" r="1" gradientUnits="userSpaceOnUse" gradientTransform="translate(802.99 16.9615) scale(1011.41 438.078)">
<stop stop-color="#3D4753"/>
<stop offset="1" stop-color="#0B1318"/>
</radialGradient>
</defs>
</svg>

<svg width="375" height="100" fill="none" xmlns="http://www.w3.org/2000/svg"><path d="M1179.5 17.875L1139.55.57H806.869l-75.695 32.786H127.618L51.923.57H-157v51.892h972.607L922.99 98.974h501.33l107.39-46.512H1763V17.875h-583.5z" fill="url(#paint0_radial_2129_1040)"/><path d="M1139.55.57H806.869l-57.692 24.966h195.711l107.382 46.511h317.36l107.38-46.511H1763v-7.66h-583.5L1139.55.57z" fill="url(#paint1_radial_2129_1040)"/><path d="M1425.27 100H922.043l-.737-.296-106.647-46.216H-157v-2.052h973.607L923.99 97.948h499.33l107.38-46.512H1763v2.052h-230.35L1425.27 100z" fill="url(#paint2_radial_2129_1040)"/><path d="M731.701 33.926H127.039L51.344 1.14H-157V0H52.45l75.694 32.786h602.451L806.29 0h333.78l40.01 17.305H1763v1.14h-584.03L1139.02 1.14H807.395l-75.694 32.786z" fill="url(#paint3_radial_2129_1040)"/><defs><radialGradient id="paint0_radial_2129_1040" cx="0" cy="0" r="1" gradientUnits="userSpaceOnUse" gradientTransform="matrix(1109.71 0 0 488.454 928.501 123.794)"><stop stop-color="#7B8499"/><stop offset="1" stop-color="#151E28"/></radialGradient><radialGradient id="paint1_radial_2129_1040" cx="0" cy="0" r="1" gradientUnits="userSpaceOnUse" gradientTransform="matrix(1436.02 0 0 459.493 436.571 215.343)"><stop stop-color="#7B8499"/><stop offset="1" stop-color="#151E28"/></radialGradient><radialGradient id="paint2_radial_2129_1040" cx="0" cy="0" r="1" gradientUnits="userSpaceOnUse" gradientTransform="matrix(866.149 0 0 772.515 802.99 113.635)"><stop stop-color="#B8BFC9"/><stop offset="1" stop-color="#151E28"/></radialGradient><radialGradient id="paint3_radial_2129_1040" cx="0" cy="0" r="1" gradientUnits="userSpaceOnUse" gradientTransform="matrix(1011.41 0 0 438.078 802.99 16.962)"><stop stop-color="#3D4753"/><stop offset="1" stop-color="#0B1318"/></radialGradient></defs></svg>
